X: 38688
T: Strathlorne Valley
R: jig
M: 6/8
K: Gmajor
Bc|:d2gB2d|G2ED2C|B,DG GAB|cAF DFA|
c2e A2c|F2ED2C|B,DG cBA|G3 GBc:|
d2b b2f|a2f g2B|cBc ABc|edB GBd|
g2b f2a|g2 ed2B|cde def|g3g2a|
bgb afd|gfg dBG|cde ded|dBG AFD|
GAB cBA|GBd g2g|fed cBA|G3 GBc||

